src/assets/icons/adwaita/mimetypes/application-wasm.svg

<?xml version="1.0" encoding="UTF-8" standalone="no"?>
<svg
   height="128px"
   viewBox="0 0 128 128"
   width="128px"
   version="1.1"
   id="application_wasm_svg35"
   xml:space="preserve"
   xmlns:xlink="http://www.w3.org/1999/xlink"
   xmlns="http://www.w3.org/2000/svg"
   xmlns:svg="http://www.w3.org/2000/svg"><defs
     id="application_wasm_defs39"><mask
       id="application_wasm_holes"><rect
         x="-60"
         y="-60"
         width="120"
         height="120"
         fill="#ffffff"
         id="application_wasm_rect1240" /><circle
         id="application_wasm_hole"
         cy="-40"
         r="3"
         cx="0" /><use
         xlink:href="#application_wasm_hole"
         transform="rotate(72)"
         id="application_wasm_use1243" /><use
         xlink:href="#application_wasm_hole"
         transform="rotate(144)"
         id="application_wasm_use1245" /><use
         xlink:href="#application_wasm_hole"
         transform="rotate(-144)"
         id="application_wasm_use1247" /><use
         xlink:href="#application_wasm_hole"
         transform="rotate(-72)"
         id="application_wasm_use1249" /></mask></defs><linearGradient
     id="application_wasm_a"
     gradientUnits="userSpaceOnUse"
     x1="36"
     x2="60"
     y1="68"
     y2="68"><stop
       offset="0"
       stop-color="#ed336c"
       id="application_wasm_stop2" /><stop
       offset="1"
       stop-color="#ffa348"
       id="application_wasm_stop4" /></linearGradient><linearGradient
     id="application_wasm_b"
     gradientTransform="matrix(0 1 -1 0 144 -32)"
     gradientUnits="userSpaceOnUse"
     x1="72"
     x2="96"
     y1="68"
     y2="68"><stop
       offset="0"
       stop-color="#404ce6"
       id="application_wasm_stop7" /><stop
       offset="1"
       stop-color="#c061cb"
       id="application_wasm_stop9" /></linearGradient><linearGradient
     id="application_wasm_c"
     gradientUnits="userSpaceOnUse"
     x1="68.84919"
     x2="95.257637"
     y1="84"
     y2="84"><stop
       offset="0"
       stop-color="#33d1c6"
       id="application_wasm_stop12" /><stop
       offset="1"
       stop-color="#1c25d8"
       id="application_wasm_stop14" /></linearGradient><path
     id="application_wasm_path4411"
     clip-path="none"
     style="display:inline;fill:#654ff0;fill-opacity:1;stroke:none;stroke-width:0.125;stroke-linejoin:round;stroke-miterlimit:4;stroke-dasharray:none;stroke-opacity:1;enable-background:new"
     d="M 27.978516 8 C 23.546517 8 19.978516 11.568001 19.978516 16 L 19.978516 112 C 19.978516 116.43201 23.546517 120 27.978516 120 L 99.978516 120 C 104.41051 120 108.02156 116.41052 108.02148 111.97852 L 108.02148 37.917969 L 77.978516 8 L 74.140625 8 L 74.140625 8.4765625 C 74.140625 14.078451 69.600444 18.619141 64 18.619141 C 58.398115 18.619141 53.859375 14.077006 53.859375 8.4765625 L 53.859375 8 L 27.978516 8 z " /><path
     style="display:inline;vector-effect:none;fill:#ffffff;fill-opacity:0.30000001;stroke:none;stroke-width:0.125;stroke-linecap:butt;stroke-linejoin:round;stroke-miterlimit:4;stroke-dasharray:none;stroke-dashoffset:0;stroke-opacity:1;enable-background:new"
     d="M 77.978074,8.0000006 V 30.000002 c 0,4.432 3.610527,7.923448 8.042527,7.923448 l 22.000369,-0.0055 z"
     id="application_wasm_path4413" /><path
     d="m 39.999992,72.680244 h 5.862256 l 4.002127,21.314288 h 0.07226 l 4.810061,-21.314288 h 5.483581 l 4.344663,21.575892 h 0.08527 l 4.561471,-21.575892 h 5.749524 L 67.500293,103.9991 H 61.682838 L 57.374311,82.684821 h -0.112739 l -4.61205,21.314279 h -5.925856 z m 41.580709,0 h 9.241439 l 9.17785,31.318856 h -6.04726 l -1.996,-6.969375 H 81.428941 L 79.88822,103.9991 h -5.889722 z m 3.517934,7.71951 -2.556789,11.490377 H 90.49984 L 87.56437,80.399754 Z"
     fill="#ffffff"
     id="application_wasm_path3"
     style="stroke-width:0.144533" /></svg>

<svg xmlns="http://www.w3.org/2000/svg" xml:space="preserve" width="128" height="128" viewBox="0 0 128 128"><path d="M27.979 8c-4.432 0-8 3.568-8 8v96c0 4.432 3.568 8 8 8h72c4.432 0 8.043-3.59 8.042-8.021V37.918L77.98 8h-3.84v.477c0 5.601-4.54 10.142-10.141 10.142-5.602 0-10.14-4.542-10.14-10.142V8z" style="display:inline;fill:#654ff0;fill-opacity:1;stroke:none;stroke-width:.125;stroke-linejoin:round;stroke-miterlimit:4;stroke-dasharray:none;stroke-opacity:1"/><path d="M77.978 8v22c0 4.432 3.61 7.923 8.043 7.923l22-.005z" style="display:inline;vector-effect:none;fill:#fff;fill-opacity:.30000001;stroke:none;stroke-width:.125;stroke-linecap:butt;stroke-linejoin:round;stroke-miterlimit:4;stroke-dasharray:none;stroke-dashoffset:0;stroke-opacity:1"/><path fill="#fff" d="M40 72.68h5.862l4.002 21.315h.073l4.81-21.315h5.483l4.345 21.576h.085l4.562-21.576h5.75L67.5 104h-5.817l-4.309-21.315h-.112l-4.612 21.314h-5.926zm41.58 0h9.242L100 104h-6.047l-1.996-6.97H81.429l-1.54 6.97h-5.89zm3.52 7.72-2.557 11.49H90.5L87.564 80.4Z" style="stroke-width:.144533"/></svg>
